static/trl/Level5EarlyPrototype.svg

<?xml version="1.0" encoding="UTF-8" standalone="no"?>
<svg
   width="116"
   height="20"
   role="img"
   aria-label="repo status: Active"
   version="1.1"
   id="svg240"
   sodipodi:docname="Level5EarlyPrototype.svg"
   inkscape:version="1.2.1 (9c6d41e410, 2022-07-14, custom)"
   inkscape:export-filename="Level5EarlyPrototype.png"
   inkscape:export-xdpi="105.85"
   inkscape:export-ydpi="105.85"
   xmlns:inkscape="http://www.inkscape.org/namespaces/inkscape"
   xmlns:sodipodi="http://sodipodi.sourceforge.net/DTD/sodipodi-0.dtd"
   xmlns="http://www.w3.org/2000/svg"
   xmlns:svg="http://www.w3.org/2000/svg"
   xmlns:rdf="http://www.w3.org/1999/02/22-rdf-syntax-ns#"
   xmlns:cc="http://creativecommons.org/ns#"
   xmlns:dc="http://purl.org/dc/elements/1.1/">
  <defs
     id="defs244">
    <clipPath
       clipPathUnits="userSpaceOnUse"
       id="clipPath1181">
      <g
         id="g1185">
        <rect
           width="116"
           height="20"
           rx="3"
           fill="#ffffff"
           id="rect1183"
           ry="3"
           x="0"
           y="0" />
      </g>
    </clipPath>
    <clipPath
       clipPathUnits="userSpaceOnUse"
       id="clipPath1187">
      <g
         id="g1191">
        <rect
           width="116"
           height="20"
           rx="3"
           fill="#ffffff"
           id="rect1189"
           ry="3"
           x="0"
           y="0" />
      </g>
    </clipPath>
    <clipPath
       clipPathUnits="userSpaceOnUse"
       id="clipPath1193">
      <g
         id="g1197">
        <rect
           width="116"
           height="20"
           rx="3"
           fill="#ffffff"
           id="rect1195"
           ry="3"
           x="0"
           y="0" />
      </g>
    </clipPath>
    <clipPath
       clipPathUnits="userSpaceOnUse"
       id="clipPath1187-1">
      <g
         id="g1191-2">
        <rect
           width="116"
           height="20"
           rx="3"
           fill="#ffffff"
           id="rect1189-7"
           ry="3"
           x="0"
           y="0" />
      </g>
    </clipPath>
  </defs>
  <sodipodi:namedview
     id="namedview242"
     pagecolor="#ffffff"
     bordercolor="#666666"
     borderopacity="1.0"
     inkscape:showpageshadow="2"
     inkscape:pageopacity="0.0"
     inkscape:pagecheckerboard="0"
     inkscape:deskcolor="#d1d1d1"
     showgrid="false"
     showguides="false"
     inkscape:zoom="12.594828"
     inkscape:cx="90.672139"
     inkscape:cy="5.0020532"
     inkscape:window-width="3830"
     inkscape:window-height="2117"
     inkscape:window-x="2165"
     inkscape:window-y="5"
     inkscape:window-maximized="1"
     inkscape:current-layer="svg240" />
  <title
     id="title212">repo status: Active</title>
  <linearGradient
     id="s"
     x2="0"
     y2="48.166378"
     gradientTransform="matrix(2.4083189,0,0,0.4152274,0.11934261,-0.17268883)"
     x1="0"
     y1="0"
     gradientUnits="userSpaceOnUse">
    <stop
       offset="0"
       stop-color="#bbb"
       stop-opacity=".1"
       id="stop214" />
    <stop
       offset="1"
       stop-opacity=".1"
       id="stop216" />
  </linearGradient>
  <rect
     width="73"
     height="20"
     fill="#555555"
     id="rect222"
     x="0"
     y="0"
     clip-path="url(#clipPath1193)" />
  <rect
     x="73"
     width="43"
     height="20"
     fill="#44cc11"
     id="rect224-0"
     y="0"
     clip-path="url(#clipPath1187-1)"
     transform="matrix(1.5512438,0,0,1,-63.976709,0.05721894)"
     style="fill:#000000" />
  <rect
     x="73"
     width="43"
     height="20"
     fill="#44cc11"
     id="rect224"
     y="0"
     clip-path="url(#clipPath1187)"
     transform="matrix(0.88780159,0,0,1,-15.515458,0.15130392)"
     style="fill:#a0892c" />
  <text
     xml:space="preserve"
     style="font-size:8px;line-height:7.1px;font-family:sans-serif;-inkscape-font-specification:sans-serif;text-align:start;letter-spacing:0px;word-spacing:0px;text-anchor:start;fill:#ffffff;stroke:none;stroke-width:1px;stroke-linecap:butt;stroke-linejoin:miter;stroke-opacity:1"
     x="3.2374671"
     y="9.2642479"
     id="text616"><tspan
       sodipodi:role="line"
       id="tspan614"
       x="3.2374671"
       y="9.2642479"
       style="font-size:8px;text-align:start;text-anchor:start">technology</tspan><tspan
       sodipodi:role="line"
       x="3.2374671"
       y="16.364248"
       id="tspan1172"
       style="font-size:8px;text-align:start;text-anchor:start">readiness</tspan></text>
  <path
     style="fill:none;fill-rule:evenodd;stroke:#343434;stroke-width:1px;stroke-linecap:butt;stroke-linejoin:miter;stroke-opacity:1;opacity:0.61268297"
     d="M 55.869357,0.31610053 V 19.496127"
     id="path1352" />
  <path
     style="fill:none;fill-rule:evenodd;stroke:#343434;stroke-width:1px;stroke-linecap:butt;stroke-linejoin:miter;stroke-opacity:1;opacity:0.61268297"
     d="M 62.459073,0.38583132 V 19.565858"
     id="path1352-6" />
  <path
     style="fill:none;fill-rule:evenodd;stroke:#343434;stroke-width:1px;stroke-linecap:butt;stroke-linejoin:miter;stroke-opacity:1;opacity:0.61268297"
     d="M 68.745921,0.37653176 V 19.556558"
     id="path1352-8"
     inkscape:transform-center-x="3.8213716"
     inkscape:transform-center-y="-1.8526859" />
  <path
     style="fill:none;fill-rule:evenodd;stroke:#343434;stroke-width:1px;stroke-linecap:butt;stroke-linejoin:miter;stroke-opacity:1;opacity:0.61268297"
     d="M 75.21495,0.42340294 V 19.60343"
     id="path1352-8-9"
     inkscape:transform-center-x="3.8213716"
     inkscape:transform-center-y="-1.8526859" />
  <path
     style="fill:none;fill-rule:evenodd;stroke:#343434;stroke-width:1px;stroke-linecap:butt;stroke-linejoin:miter;stroke-opacity:1;opacity:0.61268297"
     d="M 81.508205,0.42544261 V 19.605469"
     id="path1352-8-9-2"
     inkscape:transform-center-x="3.8213716"
     inkscape:transform-center-y="-1.8526859" />
  <path
     style="fill:none;fill-rule:evenodd;stroke:#343434;stroke-width:1px;stroke-linecap:butt;stroke-linejoin:miter;stroke-opacity:1;opacity:0.61268297"
     d="M 88.052737,0.30352122 V 19.483547"
     id="path1352-8-9-2-6"
     inkscape:transform-center-x="3.8213716"
     inkscape:transform-center-y="-1.8526859" />
  <path
     style="fill:none;fill-rule:evenodd;stroke:#343434;stroke-width:1px;stroke-linecap:butt;stroke-linejoin:miter;stroke-opacity:1;opacity:0.61268297"
     d="M 94.273746,0.39081555 V 19.570842"
     id="path1352-8-9-2-64"
     inkscape:transform-center-x="3.8213716"
     inkscape:transform-center-y="-1.8526859" />
  <path
     style="fill:none;fill-rule:evenodd;stroke:#343434;stroke-width:1px;stroke-linecap:butt;stroke-linejoin:miter;stroke-opacity:1;opacity:0.61268297"
     d="M 107.35509,0.40134849 V 19.581375"
     id="path1352-8-9-2-5"
     inkscape:transform-center-x="3.8213716"
     inkscape:transform-center-y="-1.8526859" />
  <path
     style="fill:none;fill-rule:evenodd;stroke:#343434;stroke-width:1px;stroke-linecap:butt;stroke-linejoin:miter;stroke-opacity:1;opacity:0.61268297"
     d="M 100.74407,0.37828608 V 19.558313"
     id="path1352-8-9-2-9"
     inkscape:transform-center-x="3.8213716"
     inkscape:transform-center-y="-1.8526859" />
  <rect
     width="116"
     height="20"
     fill="url(#s)"
     id="rect226"
     style="fill:url(#s)"
     x="0"
     y="0"
     clip-path="url(#clipPath1181)"
     transform="translate(-0.11934261,0.17268883)" />
  <metadata
     id="metadata1510">
    <rdf:RDF>
      <cc:Work
         rdf:about="">
        <dc:title>repo status: Active</dc:title>
      </cc:Work>
    </rdf:RDF>
  </metadata>
</svg>

<?xml version="1.0" encoding="UTF-8"?>
<svg width="116" height="20" aria-label="repo status: Active" role="img" version="1.1" xmlns="http://www.w3.org/2000/svg" xmlns:cc="http://creativecommons.org/ns#" xmlns:dc="http://purl.org/dc/elements/1.1/" xmlns:rdf="http://www.w3.org/1999/02/22-rdf-syntax-ns#">
 <defs>
  <clipPath id="clipPath1181">
   <rect width="116" height="20" rx="3" ry="3" fill="#fff"/>
  </clipPath>
  <clipPath id="clipPath1187">
   <rect width="116" height="20" rx="3" ry="3" fill="#fff"/>
  </clipPath>
  <clipPath id="clipPath1193">
   <rect width="116" height="20" rx="3" ry="3" fill="#fff"/>
  </clipPath>
  <clipPath id="clipPath1187-1">
   <rect width="116" height="20" rx="3" ry="3" fill="#fff"/>
  </clipPath>
 </defs>
 <title>repo status: Active</title>
 <linearGradient id="s" x2="0" y2="48.166" gradientTransform="matrix(2.4083 0 0 .41523 .11934 -.17269)" gradientUnits="userSpaceOnUse">
  <stop stop-color="#bbb" stop-opacity=".1" offset="0"/>
  <stop stop-opacity=".1" offset="1"/>
 </linearGradient>
 <rect width="73" height="20" clip-path="url(#clipPath1193)" fill="#555"/>
 <rect transform="matrix(1.5512 0 0 1 -63.977 .057219)" x="73" width="43" height="20" clip-path="url(#clipPath1187-1)"/>
 <rect transform="matrix(.8878 0 0 1 -15.515 .1513)" x="73" width="43" height="20" clip-path="url(#clipPath1187)" fill="#a0892c"/>
 <text x="3.2374671" y="9.2642479" fill="#ffffff" font-family="sans-serif" font-size="8px" letter-spacing="0px" stroke-width="1px" word-spacing="0px" style="line-height:7.1px" xml:space="preserve"><tspan x="3.2374671" y="9.2642479">technology</tspan><tspan x="3.2374671" y="16.364248">readiness</tspan></text>
 <g fill="none" stroke="#343434" stroke-width="1px">
  <path d="m55.869 0.3161v19.18" opacity=".61268"/>
  <path d="m62.459 0.38583v19.18" opacity=".61268"/>
  <path d="m68.746 0.37653v19.18" opacity=".61268"/>
  <path d="m75.215 0.4234v19.18" opacity=".61268"/>
  <path d="m81.508 0.42544v19.18" opacity=".61268"/>
  <path d="m88.053 0.30352v19.18" opacity=".61268"/>
  <path d="m94.274 0.39082v19.18" opacity=".61268"/>
  <path d="m107.36 0.40135v19.18" opacity=".61268"/>
  <path d="m100.74 0.37829v19.18" opacity=".61268"/>
 </g>
 <rect transform="translate(-.11934 .17269)" width="116" height="20" clip-path="url(#clipPath1181)" fill="url(#s)"/>
 <metadata>
  <rdf:RDF>
   <cc:Work rdf:about="">
    <dc:title>repo status: Active</dc:title>
   </cc:Work>
  </rdf:RDF>
 </metadata>
</svg>
